client/resources/iconsets/breeze/src/svg/16x16/icon_calendar_appt_tentative.svg

<svg xmlns="http://www.w3.org/2000/svg" width="16" height="16" viewBox="0 0 16 16">
  <path
     style="fill:#fcc907"
     d="m 6.3427331,10 0,-0.6569538 c 0,-0.5086093 0.1185828,-0.9509935 0.3557485,-1.3271524 0.2371656,-0.3761589 0.6710051,-0.7761589 1.3015185,-1.2 C 8.6073754,6.4185427 9.0065077,6.0953639 9.1973971,5.8463573 9.394071,5.5973506 9.492408,5.3192049 9.492408,5.0119202 9.492408,4.6675493 9.3535793,4.4052976 9.075922,4.2251652 8.7982647,4.0450327 8.4107015,3.9549665 7.9132322,3.9549665 c -0.867679,0 -1.8568331,0.2596027 -2.9674622,0.778808 L 3.9999999,2.993377 c 1.2899495,-0.6622517 2.65799,-0.9933775 4.1041216,-0.9933775 1.1916125,0 2.1373825,0.2622517 2.8373105,0.786755 C 11.647144,3.3112578 12,4.0105956 12,4.8847678 12,5.4675493 11.855387,5.9708606 11.56616,6.3947017 11.276934,6.8185428 10.727404,7.295364 9.9175702,7.8251653 9.3622559,8.2013243 9.0094,8.487417 8.8590023,8.6834435 8.7143891,8.87947 8.6420825,9.1364237 8.6420825,9.4543045 l 0,0.5456955 z m -0.3285047,2.640532 c 0,-0.445033 0.1301518,-0.781457 0.3904554,-1.009271 0.2603038,-0.227814 0.6391903,-0.341722 1.1366595,-0.341722 0.4801158,0 0.8503256,0.116557 1.1106292,0.349669 0.2660883,0.233112 0.3991324,0.566887 0.3991324,1.001324 0,0.418544 -0.1330441,0.74967 -0.3991324,0.993378 -0.2660882,0.238411 -0.6362979,0.357616 -1.1106291,0.357616 -0.4859002,0 -0.8618945,-0.116556 -1.1279827,-0.349669 -0.2660882,-0.23841 -0.3991323,-0.572185 -0.3991323,-1.001325 z"
     />
</svg>

<svg xmlns="http://www.w3.org/2000/svg" width="16" height="16"><path d="M6.343 10v-.657c0-.509.119-.951.356-1.327S7.369 7.24 8 6.816c.607-.397 1.007-.721 1.197-.97.197-.249.295-.527.295-.834 0-.344-.139-.607-.416-.787s-.665-.27-1.163-.27c-.868 0-1.857.26-2.967.779L4 2.993A8.86 8.86 0 0 1 8.104 2c1.192 0 2.137.262 2.837.787A2.48 2.48 0 0 1 12 4.885c0 .583-.145 1.086-.434 1.51s-.839.901-1.649 1.43c-.555.376-.908.662-1.059.858-.145.196-.217.453-.217.771V10zm-.329 2.641c0-.445.13-.781.39-1.009s.639-.342 1.137-.342c.48 0 .85.117 1.111.35.266.233.399.567.399 1.001 0 .419-.133.75-.399.993-.266.238-.636.358-1.111.358-.486 0-.862-.117-1.128-.35-.266-.238-.399-.572-.399-1.001z" fill="#fcc907"/></svg>
